X: 28461
T: Mummer's March, The
R: jig
M: 6/8
K: Gmajor
|:G2BA2c|G2BF2E|G2BA2c|BGEF3:|
BGe (e_e=e)|BGE A3|BGe (e_e=e)|cBA B3|EGB e2 B|
c>BAF3|EGB e2B|cBA Bcd|e2c d2B|c>BAF3||

